images/50434559.svg

<?xml version="1.0" encoding="UTF-8"?>
<svg xmlns="http://www.w3.org/2000/svg" xmlns:xlink="http://www.w3.org/1999/xlink" width="300pt" height="300pt" viewBox="0 0 300 300" version="1.1">
<defs>
<g>
<symbol overflow="visible" id="glyph0-0">
<path style="stroke:none;" d="M 0.59375 2.125 L 0.59375 -8.46875 L 6.59375 -8.46875 L 6.59375 2.125 Z M 1.265625 1.453125 L 5.9375 1.453125 L 5.9375 -7.78125 L 1.265625 -7.78125 Z M 1.265625 1.453125 "/>
</symbol>
<symbol overflow="visible" id="glyph0-1">
<path style="stroke:none;" d="M 1.171875 -8.75 L 6.203125 -8.75 L 6.203125 -7.75 L 2.359375 -7.75 L 2.359375 -5.171875 L 5.828125 -5.171875 L 5.828125 -4.171875 L 2.359375 -4.171875 L 2.359375 0 L 1.171875 0 Z M 1.171875 -8.75 "/>
</symbol>
<symbol overflow="visible" id="glyph0-2">
<path style="stroke:none;" d="M 1.171875 -8.75 L 2.765625 -8.75 L 6.65625 -1.4375 L 6.65625 -8.75 L 7.796875 -8.75 L 7.796875 0 L 6.203125 0 L 2.328125 -7.3125 L 2.328125 0 L 1.171875 0 Z M 1.171875 -8.75 "/>
</symbol>
</g>
</defs>
<g id="surface26905">
<rect x="0" y="0" width="300" height="300" style="fill:rgb(100%,100%,100%);fill-opacity:1;stroke:none;"/>
<path style="fill:none;stroke-width:1.2;stroke-linecap:butt;stroke-linejoin:miter;stroke:rgb(20%,80%,80%);stroke-opacity:1;stroke-miterlimit:10;" d="M 240.449219 168.355469 L 239.476562 152.640625 "/>
<path style="fill:none;stroke-width:1.2;stroke-linecap:butt;stroke-linejoin:miter;stroke:rgb(0%,0%,0%);stroke-opacity:1;stroke-miterlimit:10;" d="M 239.476562 152.640625 L 238.503906 136.925781 "/>
<path style=" stroke:none;fill-rule:nonzero;fill:rgb(100%,100%,100%);fill-opacity:1;" d="M 237.449219 161.355469 L 244.449219 161.355469 L 244.449219 175.355469 L 237.449219 175.355469 Z M 237.449219 161.355469 "/>
<g style="fill:rgb(20%,80%,80%);fill-opacity:1;">
  <use xlink:href="#glyph0-1" x="237.449219" y="172.494141"/>
</g>
<path style="fill:none;stroke-width:1.2;stroke-linecap:butt;stroke-linejoin:miter;stroke:rgb(0%,0%,0%);stroke-opacity:1;stroke-miterlimit:10;" d="M 238.503906 136.925781 L 210.3125 122.894531 "/>
<path style="fill:none;stroke-width:1.2;stroke-linecap:butt;stroke-linejoin:miter;stroke:rgb(0%,0%,0%);stroke-opacity:1;stroke-miterlimit:10;" d="M 238.503906 136.925781 L 264.75 119.523438 "/>
<path style="fill:none;stroke-width:1.2;stroke-linecap:butt;stroke-linejoin:miter;stroke:rgb(0%,0%,0%);stroke-opacity:1;stroke-miterlimit:10;" d="M 237.035156 129.007812 L 258.03125 115.089844 "/>
<path style="fill:none;stroke-width:1.2;stroke-linecap:butt;stroke-linejoin:miter;stroke:rgb(0%,0%,0%);stroke-opacity:1;stroke-miterlimit:10;" d="M 210.3125 122.894531 L 209.339844 107.179688 "/>
<path style="fill:none;stroke-width:1.2;stroke-linecap:butt;stroke-linejoin:miter;stroke:rgb(0%,0%,100%);stroke-opacity:1;stroke-miterlimit:10;" d="M 209.339844 107.179688 L 208.367188 91.464844 "/>
<path style="fill:none;stroke-width:1.2;stroke-linecap:butt;stroke-linejoin:miter;stroke:rgb(0%,0%,0%);stroke-opacity:1;stroke-miterlimit:10;" d="M 181.019531 134.457031 L 210.3125 122.894531 "/>
<path style="fill:none;stroke-width:1.2;stroke-linecap:butt;stroke-linejoin:miter;stroke:rgb(0%,0%,0%);stroke-opacity:1;stroke-miterlimit:10;" d="M 181.226562 126.40625 L 204.660156 117.160156 "/>
<path style="fill:none;stroke-width:1.2;stroke-linecap:butt;stroke-linejoin:miter;stroke:rgb(0%,0%,100%);stroke-opacity:1;stroke-miterlimit:10;" d="M 208.367188 91.464844 L 177.871094 83.601562 "/>
<path style="fill:none;stroke-width:1.2;stroke-linecap:butt;stroke-linejoin:miter;stroke:rgb(0%,0%,100%);stroke-opacity:1;stroke-miterlimit:10;" d="M 208.367188 91.464844 L 221.488281 82.765625 "/>
<path style="fill:none;stroke-width:1.2;stroke-linecap:butt;stroke-linejoin:miter;stroke:rgb(0%,0%,0%);stroke-opacity:1;stroke-miterlimit:10;" d="M 221.488281 82.765625 L 234.613281 74.0625 "/>
<path style=" stroke:none;fill-rule:nonzero;fill:rgb(100%,100%,100%);fill-opacity:1;" d="M 204.367188 84.464844 L 213.367188 84.464844 L 213.367188 98.464844 L 204.367188 98.464844 Z M 204.367188 84.464844 "/>
<g style="fill:rgb(0%,0%,100%);fill-opacity:1;">
  <use xlink:href="#glyph0-2" x="204.367188" y="95.603516"/>
</g>
<path style="fill:none;stroke-width:1.2;stroke-linecap:butt;stroke-linejoin:miter;stroke:rgb(0%,0%,100%);stroke-opacity:1;stroke-miterlimit:10;" d="M 177.871094 83.601562 L 169.421875 96.886719 "/>
<path style="fill:none;stroke-width:1.2;stroke-linecap:butt;stroke-linejoin:miter;stroke:rgb(0%,0%,0%);stroke-opacity:1;stroke-miterlimit:10;" d="M 169.421875 96.886719 L 160.972656 110.171875 "/>
<path style="fill:none;stroke-width:1.2;stroke-linecap:butt;stroke-linejoin:miter;stroke:rgb(0%,0%,100%);stroke-opacity:1;stroke-miterlimit:10;" d="M 182.433594 90.234375 L 175.675781 100.863281 "/>
<path style="fill:none;stroke-width:1.2;stroke-linecap:butt;stroke-linejoin:miter;stroke:rgb(0%,0%,0%);stroke-opacity:1;stroke-miterlimit:10;" d="M 175.675781 100.863281 L 168.914062 111.492188 "/>
<path style=" stroke:none;fill-rule:nonzero;fill:rgb(100%,100%,100%);fill-opacity:1;" d="M 173.871094 76.601562 L 182.871094 76.601562 L 182.871094 90.601562 L 173.871094 90.601562 Z M 173.871094 76.601562 "/>
<g style="fill:rgb(0%,0%,100%);fill-opacity:1;">
  <use xlink:href="#glyph0-2" x="173.871094" y="87.740234"/>
</g>
<path style="fill:none;stroke-width:1.2;stroke-linecap:butt;stroke-linejoin:miter;stroke:rgb(0%,0%,0%);stroke-opacity:1;stroke-miterlimit:10;" d="M 160.972656 110.171875 L 181.019531 134.457031 "/>
<path style="fill:none;stroke-width:1.2;stroke-linecap:butt;stroke-linejoin:miter;stroke:rgb(0%,0%,0%);stroke-opacity:1;stroke-miterlimit:10;" d="M 160.972656 110.171875 L 129.542969 112.117188 "/>
<path style="fill:none;stroke-width:1.2;stroke-linecap:butt;stroke-linejoin:miter;stroke:rgb(0%,0%,0%);stroke-opacity:1;stroke-miterlimit:10;" d="M 181.019531 134.457031 L 173.15625 164.949219 "/>
<path style="fill:none;stroke-width:1.2;stroke-linecap:butt;stroke-linejoin:miter;stroke:rgb(0%,0%,0%);stroke-opacity:1;stroke-miterlimit:10;" d="M 173.15625 164.949219 L 142.816406 173.386719 "/>
<path style="fill:none;stroke-width:1.2;stroke-linecap:butt;stroke-linejoin:miter;stroke:rgb(0%,0%,0%);stroke-opacity:1;stroke-miterlimit:10;" d="M 172.109375 172.933594 L 147.835938 179.683594 "/>
<path style="fill:none;stroke-width:1.2;stroke-linecap:butt;stroke-linejoin:miter;stroke:rgb(0%,0%,0%);stroke-opacity:1;stroke-miterlimit:10;" d="M 195.632812 187.003906 L 173.15625 164.949219 "/>
<path style="fill:none;stroke-width:1.2;stroke-linecap:butt;stroke-linejoin:miter;stroke:rgb(0%,0%,0%);stroke-opacity:1;stroke-miterlimit:10;" d="M 142.816406 173.386719 L 134.953125 203.878906 "/>
<path style="fill:none;stroke-width:1.2;stroke-linecap:butt;stroke-linejoin:miter;stroke:rgb(0%,0%,0%);stroke-opacity:1;stroke-miterlimit:10;" d="M 134.953125 203.878906 L 146.191406 214.90625 "/>
<path style="fill:none;stroke-width:1.2;stroke-linecap:butt;stroke-linejoin:miter;stroke:rgb(0%,0%,100%);stroke-opacity:1;stroke-miterlimit:10;" d="M 146.191406 214.90625 L 157.429688 225.9375 "/>
<path style="fill:none;stroke-width:1.2;stroke-linecap:butt;stroke-linejoin:miter;stroke:rgb(0%,0%,0%);stroke-opacity:1;stroke-miterlimit:10;" d="M 142.390625 200.796875 L 151.382812 209.621094 "/>
<path style="fill:none;stroke-width:1.2;stroke-linecap:butt;stroke-linejoin:miter;stroke:rgb(0%,0%,100%);stroke-opacity:1;stroke-miterlimit:10;" d="M 151.382812 209.621094 L 160.375 218.441406 "/>
<path style="fill:none;stroke-width:1.2;stroke-linecap:butt;stroke-linejoin:miter;stroke:rgb(0%,0%,100%);stroke-opacity:1;stroke-miterlimit:10;" d="M 157.429688 225.9375 L 172.601562 221.71875 "/>
<path style="fill:none;stroke-width:1.2;stroke-linecap:butt;stroke-linejoin:miter;stroke:rgb(0%,0%,0%);stroke-opacity:1;stroke-miterlimit:10;" d="M 172.601562 221.71875 L 187.769531 217.5 "/>
<path style=" stroke:none;fill-rule:nonzero;fill:rgb(100%,100%,100%);fill-opacity:1;" d="M 153.429688 218.9375 L 162.429688 218.9375 L 162.429688 232.9375 L 153.429688 232.9375 Z M 153.429688 218.9375 "/>
<g style="fill:rgb(0%,0%,100%);fill-opacity:1;">
  <use xlink:href="#glyph0-2" x="153.429688" y="230.076172"/>
</g>
<path style="fill:none;stroke-width:1.2;stroke-linecap:butt;stroke-linejoin:miter;stroke:rgb(0%,0%,0%);stroke-opacity:1;stroke-miterlimit:10;" d="M 187.769531 217.5 L 195.632812 187.003906 "/>
<path style="fill:none;stroke-width:1.2;stroke-linecap:butt;stroke-linejoin:miter;stroke:rgb(0%,0%,0%);stroke-opacity:1;stroke-miterlimit:10;" d="M 181.382812 212.597656 L 187.671875 188.203125 "/>
<path style="fill:none;stroke-width:1.2;stroke-linecap:butt;stroke-linejoin:miter;stroke:rgb(0%,0%,0%);stroke-opacity:1;stroke-miterlimit:10;" d="M 129.542969 112.117188 L 112.140625 85.871094 "/>
<path style="fill:none;stroke-width:1.2;stroke-linecap:butt;stroke-linejoin:miter;stroke:rgb(0%,0%,0%);stroke-opacity:1;stroke-miterlimit:10;" d="M 121.625 113.585938 L 107.707031 92.589844 "/>
<path style="fill:none;stroke-width:1.2;stroke-linecap:butt;stroke-linejoin:miter;stroke:rgb(0%,0%,0%);stroke-opacity:1;stroke-miterlimit:10;" d="M 115.511719 140.308594 L 129.542969 112.117188 "/>
<path style="fill:none;stroke-width:1.2;stroke-linecap:butt;stroke-linejoin:miter;stroke:rgb(0%,0%,0%);stroke-opacity:1;stroke-miterlimit:10;" d="M 112.140625 85.871094 L 80.710938 87.816406 "/>
<path style="fill:none;stroke-width:1.2;stroke-linecap:butt;stroke-linejoin:miter;stroke:rgb(0%,0%,0%);stroke-opacity:1;stroke-miterlimit:10;" d="M 80.710938 87.816406 L 66.679688 116.007812 "/>
<path style="fill:none;stroke-width:1.2;stroke-linecap:butt;stroke-linejoin:miter;stroke:rgb(0%,0%,0%);stroke-opacity:1;stroke-miterlimit:10;" d="M 85.941406 93.933594 L 74.71875 116.488281 "/>
<path style="fill:none;stroke-width:1.2;stroke-linecap:butt;stroke-linejoin:miter;stroke:rgb(0%,0%,0%);stroke-opacity:1;stroke-miterlimit:10;" d="M 66.679688 116.007812 L 50.964844 116.980469 "/>
<path style="fill:none;stroke-width:1.2;stroke-linecap:butt;stroke-linejoin:miter;stroke:rgb(20%,80%,80%);stroke-opacity:1;stroke-miterlimit:10;" d="M 50.964844 116.980469 L 35.25 117.953125 "/>
<path style="fill:none;stroke-width:1.2;stroke-linecap:butt;stroke-linejoin:miter;stroke:rgb(0%,0%,0%);stroke-opacity:1;stroke-miterlimit:10;" d="M 66.679688 116.007812 L 84.082031 142.253906 "/>
<path style=" stroke:none;fill-rule:nonzero;fill:rgb(100%,100%,100%);fill-opacity:1;" d="M 28.25 110.953125 L 35.25 110.953125 L 35.25 124.953125 L 28.25 124.953125 Z M 28.25 110.953125 "/>
<g style="fill:rgb(20%,80%,80%);fill-opacity:1;">
  <use xlink:href="#glyph0-1" x="28.25" y="122.091797"/>
</g>
<path style="fill:none;stroke-width:1.2;stroke-linecap:butt;stroke-linejoin:miter;stroke:rgb(0%,0%,0%);stroke-opacity:1;stroke-miterlimit:10;" d="M 84.082031 142.253906 L 115.511719 140.308594 "/>
<path style="fill:none;stroke-width:1.2;stroke-linecap:butt;stroke-linejoin:miter;stroke:rgb(0%,0%,0%);stroke-opacity:1;stroke-miterlimit:10;" d="M 86.765625 134.664062 L 111.910156 133.109375 "/>
<path style="fill:none;stroke-width:1.2;stroke-linecap:butt;stroke-linejoin:miter;stroke:rgb(0%,0%,0%);stroke-opacity:1;stroke-miterlimit:10;" d="M 234.613281 74.0625 L 262.804688 88.09375 "/>
<path style="fill:none;stroke-width:1.2;stroke-linecap:butt;stroke-linejoin:miter;stroke:rgb(0%,0%,0%);stroke-opacity:1;stroke-miterlimit:10;" d="M 234.128906 82.101562 L 256.683594 93.324219 "/>
<path style="fill:none;stroke-width:1.2;stroke-linecap:butt;stroke-linejoin:miter;stroke:rgb(0%,0%,0%);stroke-opacity:1;stroke-miterlimit:10;" d="M 262.804688 88.09375 L 264.75 119.523438 "/>
</g>
</svg>

<svg xmlns="http://www.w3.org/2000/svg" xmlns:xlink="http://www.w3.org/1999/xlink" width="300pt" height="300pt" viewBox="0 0 300 300"><defs><symbol overflow="visible"><path d="M.594 2.125V-8.47h6V2.126zm.672-.672h4.671V-7.78h-4.67zm0 0"/></symbol><symbol overflow="visible" id="a"><path d="M1.172-8.75h5.03v1H2.36v2.578h3.468v1h-3.47V0H1.173zm0 0"/></symbol><symbol overflow="visible" id="b"><path d="M1.172-8.75h1.594l3.89 7.313V-8.75h1.14V0H6.204L2.328-7.313V0H1.172zm0 0"/></symbol></defs><g><path fill="#fff" d="M0 0h300v300H0z"/><path d="M240.45 168.355l-.973-15.714" stroke-width="1.2" stroke="#3cc" stroke-miterlimit="10" fill="none"/><path d="M239.477 152.64l-.973-15.714" stroke-width="1.2" stroke="#000" stroke-miterlimit="10" fill="none"/><path d="M237.45 161.355h7v14h-7zm0 0" fill="#fff"/><use xlink:href="#a" x="237.449" y="172.494" fill="#3cc"/><path d="M238.504 136.926l-28.19-14.03M238.504 136.926l26.246-17.403M237.035 129.008l20.996-13.918M210.313 122.895l-.973-15.715" stroke-width="1.2" stroke="#000" stroke-miterlimit="10" fill="none"/><path d="M209.34 107.18l-.973-15.715" stroke-width="1.2" stroke="#00f" stroke-miterlimit="10" fill="none"/><path d="M181.02 134.457l29.292-11.562M181.227 126.406l23.433-9.246" stroke-width="1.2" stroke="#000" stroke-miterlimit="10" fill="none"/><path d="M208.367 91.465l-30.496-7.863M208.367 91.465l13.12-8.7" stroke-width="1.2" stroke="#00f" stroke-miterlimit="10" fill="none"/><path d="M221.488 82.766l13.125-8.704" stroke-width="1.2" stroke="#000" stroke-miterlimit="10" fill="none"/><path d="M204.367 84.465h9v14h-9zm0 0" fill="#fff"/><use xlink:href="#b" x="204.367" y="95.604" fill="#00f"/><path d="M177.87 83.602l-8.448 13.285" stroke-width="1.2" stroke="#00f" stroke-miterlimit="10" fill="none"/><path d="M169.422 96.887l-8.45 13.285" stroke-width="1.2" stroke="#000" stroke-miterlimit="10" fill="none"/><path d="M182.434 90.234l-6.758 10.63" stroke-width="1.2" stroke="#00f" stroke-miterlimit="10" fill="none"/><path d="M175.676 100.863l-6.762 10.63" stroke-width="1.2" stroke="#000" stroke-miterlimit="10" fill="none"/><path d="M173.87 76.602h9v14h-9zm0 0" fill="#fff"/><use xlink:href="#b" x="173.871" y="87.74" fill="#00f"/><path d="M160.973 110.172l20.047 24.285M160.973 110.172l-31.43 1.945M181.02 134.457l-7.864 30.492M173.156 164.95l-30.34 8.437M172.11 172.934l-24.274 6.75M195.633 187.004l-22.477-22.055M142.816 173.387l-7.863 30.492M134.953 203.88l11.238 11.026" stroke-width="1.2" stroke="#000" stroke-miterlimit="10" fill="none"/><path d="M146.19 214.906l11.24 11.03" stroke-width="1.2" stroke="#00f" stroke-miterlimit="10" fill="none"/><path d="M142.39 200.797l8.993 8.824" stroke-width="1.2" stroke="#000" stroke-miterlimit="10" fill="none"/><path d="M151.383 209.62l8.992 8.82M157.43 225.938l15.172-4.22" stroke-width="1.2" stroke="#00f" stroke-miterlimit="10" fill="none"/><path d="M172.602 221.72l15.168-4.22" stroke-width="1.2" stroke="#000" stroke-miterlimit="10" fill="none"/><path d="M153.43 218.938h9v14h-9zm0 0" fill="#fff"/><use xlink:href="#b" x="153.43" y="230.076" fill="#00f"/><path d="M187.77 217.5l7.863-30.496M181.383 212.598l6.29-24.395M129.543 112.117L112.14 85.87M121.625 113.586L107.707 92.59M115.512 140.31l14.03-28.193M112.14 85.87l-31.43 1.946M80.71 87.816l-14.03 28.192M85.94 93.934l-11.22 22.554M66.68 116.008l-15.715.972" stroke-width="1.2" stroke="#000" stroke-miterlimit="10" fill="none"/><path d="M50.965 116.98l-15.715.973" stroke-width="1.2" stroke="#3cc" stroke-miterlimit="10" fill="none"/><path d="M66.68 116.008l17.402 26.246" stroke-width="1.2" stroke="#000" stroke-miterlimit="10" fill="none"/><path d="M28.25 110.953h7v14h-7zm0 0" fill="#fff"/><use xlink:href="#a" x="28.25" y="122.092" fill="#3cc"/><path d="M84.082 142.254l31.43-1.945M86.766 134.664l25.144-1.555M234.613 74.063l28.192 14.03M234.13 82.102l22.554 11.222M262.805 88.094l1.945 31.43" stroke-width="1.2" stroke="#000" stroke-miterlimit="10" fill="none"/></g></svg>
